**harmony	**harte	**kern	**silbe	**rhyme	**timestamp	**phrase	**leadinstrument
*M4/4	*M4/4	*ICvox	*	*	*	*	*
*	*	*VRlead	*	*	*	*	*
*	*	*Hstimme	*	*	*	*	*
*C:	*C:	*C:	*	*	*	*	*
*	*	*M4/4	*	*	*	*	*
*	*	*clefGv2	*	*	*	*	*
1r;	1r	r;	.	.	0	.	r
=1	=1	=1	=1	=1	=1	=1	=1
*>Letter>A	*>Letter>A	*>Letter>A	*>Letter>A	*>Letter>A	*>Letter>A	*>Letter>A	*>Letter>A
*>Label>Intro	*>Label>Intro	*>Label>Intro	*>Label>Intro	*>Label>Intro	*>Label>Intro	*>Label>Intro	*>Label>Intro
1CM	C:maj	1r	.	.	0.395	newline	piano
=2	=2	=2	=2	=2	=2	=2	=2
1FM	F:maj	1r	.	.	3.844	.	piano
=3	=3	=3	=3	=3	=3	=3	=3
1CM	C:maj	1r	.	.	7.292	.	piano
=4	=4	=4	=4	=4	=4	=4	=4
1FM	F:maj	2.r	.	.	10.741	.	piano
.	.	8.r	.	.	.	.	.
.	.	16F	of	.	.	.	.
=5	=5	=5	=5	=5	=5	=5	=5
*>Letter>B	*>Letter>B	*>Letter>B	*>Letter>B	*>Letter>B	*>Letter>B	*>Letter>B	*>Letter>B
*>Label>Verse	*>Label>Verse	*>Label>Verse	*>Label>Verse	*>Label>Verse	*>Label>Verse	*>Label>Verse	*>Label>Verse
1CM	C:maj	8.E	course	.	14.19	newline	voice
.	.	16G	we	.	.	.	.
.	.	16c	have	.	.	.	.
.	.	16B	our	.	.	.	.
.	.	16d	differ-	.	.	.	.
.	.	16c	-enc-	.	.	.	.
.	.	4.c	-es	.	.	.	.
.	.	16r	.	.	.	.	.
.	.	16G	you	.	.	.	.
=6	=6	=6	=6	=6	=6	=6	=6
1FM	F:maj	16G	should-	.	17.697	.	voice
.	.	16F	-n't	.	.	.	.
.	.	4F	be	.	.	.	.
.	.	16E	sur-	.	.	.	.
.	.	[16F	-prised	A	.	.	.
.	.	8F]	_	.	.	.	.
.	.	8r	.	.	.	.	.
.	.	8r	.	.	.	.	.
.	.	16F	it's	.	.	.	.
.	.	16E	as	.	.	.	.
=7	=7	=7	=7	=7	=7	=7	=7
1GM	G:maj	8D	nat-	.	21.203	.	voice
.	.	16F	-u-	.	.	.	.
.	.	8.G	_	.	.	.	.
.	.	16G	as	.	.	.	.
.	.	8e	chang-	.	.	.	.
.	.	4d	-es	.	.	.	.
.	.	16d	in	.	.	.	.
.	.	16e	the	.	.	.	.
.	.	[16d	sea	.	.	.	.
=8	=8	=8	=8	=8	=8	=8	=8
1CM	C:maj	8d]	_	.	24.71	.	voice
.	.	8c	sons	.	.	.	.
.	.	16c	and	.	.	.	.
.	.	16B	the	.	.	.	.
.	.	16c	skies	A	.	.	.
.	.	16d	_	.	.	.	.
.	.	4.c	_	.	.	.	.
.	.	16r	.	.	.	.	.
.	.	16G	some-	.	.	.	.
=9	=9	=9	=9	=9	=9	=9	=9
1CM	C:maj	4E	-times	.	28.217	newline	voice
.	.	16G	we	.	.	.	.
.	.	16c	grow	.	.	.	.
.	.	16B	to-	.	.	.	.
.	.	16d	-ge-	.	.	.	.
.	.	4c	-ther	.	.	.	.
.	.	8.r	.	.	.	.	.
.	.	16G	some-	.	.	.	.
=10	=10	=10	=10	=10	=10	=10	=10
1FM	F:maj	4G	-times	.	31.735	.	voice
.	.	16F	we	.	.	.	.
.	.	16F	drift	.	.	.	.
.	.	16E	a-	.	.	.	.
.	.	8.F	-part	B	.	.	.
.	.	8r	.	.	.	.	.
.	.	8.r	.	.	.	.	.
.	.	16E	A	.	.	.	.
=11	=11	=11	=11	=11	=11	=11	=11
1GMm	G:7	8D	wis-	.	35.253	.	voice
.	.	16F	-er	.	.	.	.
.	.	8.G	man	.	.	.	.
.	.	16G	than	.	.	.	.
.	.	8e	I	.	.	.	.
.	.	8d	night	.	.	.	.
.	.	4d	know	.	.	.	.
.	.	16e	the	.	.	.	.
=12	=12	=12	=12	=12	=12	=12	=12
1CM	C:maj	8d	sea-	.	38.771	.	voice
.	.	8c	-sons	.	.	.	.
.	.	16c	of	.	.	.	.
.	.	16B	the	.	.	.	.
.	.	4.c	heart	B	.	.	.
.	.	8r	.	.	.	.	.
.	.	16r	.	.	.	.	.
.	.	32E	and	.	.	.	.
.	.	32D	I'm	.	.	.	.
=13	=13	=13	=13	=13	=13	=13	=13
1CM	C:maj	16C	walk-	.	42.289	newline	voice
.	.	8.E	-ing	.	.	.	.
.	.	8G	here	.	.	.	.
.	.	16c	be-	.	.	.	.
.	.	8d	-side	.	.	.	.
.	.	[4e	you	C	.	.	.
.	.	16e]	_	.	.	.	.
.	.	16r	.	.	.	.	.
.	.	32c	in	.	.	.	.
.	.	32c	the	.	.	.	.
=14	=14	=14	=14	=14	=14	=14	=14
1FM	F:maj	16c	ear-	.	45.831	.	voice
.	.	8.A	-ly	.	.	.	.
.	.	16A	eve-	.	.	.	.
.	.	8A	-ning	.	.	.	.
.	.	[16A	chill	D	.	.	.
.	.	4A]	_	.	.	.	.
.	.	8.r	.	.	.	.	.
.	.	16F	a	.	.	.	.
=15	=15	=15	=15	=15	=15	=15	=15
1GMm	G:7	8D	thing	.	49.372	.	voice
.	.	16F	we've	.	.	.	.
.	.	8G	al-	.	.	.	.
.	.	8G	-ways	.	.	.	.
.	.	8e	loved	.	.	.	.
.	.	16d	to	.	.	.	.
.	.	8.d	do	C	.	.	.
.	.	16r	.	.	.	.	.
.	.	16d	I	.	.	.	.
.	.	16e	_	.	.	.	.
=16	=16	=16	=16	=16	=16	=16	=16
1CM	C:maj	8.d	know	.	52.914	.	voice
.	.	16c	we	.	.	.	.
.	.	16c	al-	.	.	.	.
.	.	8B	-ways	.	.	.	.
.	.	[16c	will	D	.	.	.
.	.	4c]	_	.	.	.	.
.	.	8.r	.	.	.	.	.
.	.	16G	WE	.	.	.	.
=17	=17	=17	=17	=17	=17	=17	=17
1CM	C:maj	8E	have	.	56.455	newline	voice
.	.	8G	so	.	.	.	.
.	.	16c	much	.	.	.	.
.	.	16B	in	.	.	.	.
.	.	16d	com-	.	.	.	.
.	.	8c	-mon	.	.	.	.
.	.	8.r	.	.	.	.	.
.	.	8.r	.	.	.	.	.
.	.	16G	so	.	.	.	.
=18	=18	=18	=18	=18	=18	=18	=18
1FM	F:maj	16G	man-	.	60.007	.	voice
.	.	16F	-y	.	.	.	.
.	.	4F	things	.	.	.	.
.	.	16E	we	.	.	.	.
.	.	[16F	share	E	.	.	.
.	.	8.F]	_	.	.	.	.
.	.	16r	.	.	.	.	.
.	.	8r	.	.	.	.	.
.	.	16F	that	.	.	.	.
.	.	16E	I	.	.	.	.
=19	=19	=19	=19	=19	=19	=19	=19
1GMm	G:7	8D	can't	.	63.559	.	voice
.	.	16F	be-	.	.	.	.
.	.	8.G	-lieve	.	.	.	.
.	.	16G	my	.	.	.	.
.	.	16e	heart	.	.	.	.
.	.	4r	.	.	.	.	.
.	.	16d	when	.	.	.	.
.	.	16d	it	.	.	.	.
.	.	16e	im-	.	.	.	.
.	.	[16d	-plies	.	.	.	.
=20	=20	=20	=20	=20	=20	=20	=20
*	*	*M4/4	*	*	*	*	*
1CM	C:maj	8.d]	_	.	67.111	.	voice
.	.	16c	that	.	.	.	.
.	.	16c	you're	.	.	.	.
.	.	8B	not	.	.	.	.
.	.	[16c	there	E	.	.	.
.	.	2c_	_	.	.	.	.
=21	=21	=21	=21	=21	=21	=21	=21
*M2/4	*M2/4	*M2/4	*	*	*M2/4	*M2/4	*M2/4
2CMm	C:7	4.c]	_	.	70.663	.	voice
.	.	8r	.	.	.	.	.
=22	=22	=22	=22	=22	=22	=22	=22
*>Letter>C	*>Letter>C	*>Letter>C	*>Letter>C	*>Letter>C	*>Letter>C	*>Letter>C	*>Letter>C
*>Label>Chorus	*>Label>Chorus	*>Label>Chorus	*>Label>Chorus	*>Label>Chorus	*>Label>Chorus	*>Label>Chorus	*>Label>Chorus
*M4/4	*M4/4	*	*	*	*M4/4	*M4/4	*M4/4
2FM	F:maj	16A	love	.	72.439	newline	voice
.	.	16B	is	.	.	.	.
.	.	4c	why	.	.	.	.
.	.	8c	I	.	.	.	.
2GMm	G:7	8B	came	.	74.208	.	voice
.	.	4B	here	.	.	.	.
.	.	16B	in	.	.	.	.
.	.	16A	the	.	.	.	.
=23	=23	=23	=23	=23	=23	=23	=23
1CM	C:maj	8G	first	.	75.977	.	voice
.	.	4.D	place	.	.	.	.
.	.	2r	.	.	.	.	.
=24	=24	=24	=24	=24	=24	=24	=24
2FM	F:maj	16A	Love	.	79.514	.	voice
.	.	16B	is	.	.	.	.
.	.	[8c	now	.	.	.	.
.	.	8.c]	_	.	.	.	.
.	.	16c	the	.	.	.	.
2GMm	G:7	8B	rea-	.	81.283	.	voice
.	.	16B	-son	.	.	.	.
.	.	8.B	I	.	.	.	.
.	.	8A	must	.	.	.	.
=25	=25	=25	=25	=25	=25	=25	=25
1CM	C:maj	2G	go	F	83.052	.	voice
.	.	2r	.	.	.	.	.
=26	=26	=26	=26	=26	=26	=26	=26
2FM	F:maj	16A	Love	.	86.59	newline	voice
.	.	16B	is	.	.	.	.
.	.	4c	all	.	.	.	.
.	.	8c	I	.	.	.	.
2GMm	G:7	16B	ev-	.	88.337	.	voice
.	.	16c	-er	.	.	.	.
.	.	4d	hoped	.	.	.	.
.	.	16c	to	.	.	.	.
.	.	[16c	find	.	.	.	.
=27	=27	=27	=27	=27	=27	=27	=27
1CM	C:maj	16c]	_	.	90.084	.	voice
.	.	[4..e	here	.	.	.	.
.	.	2e]	_	.	.	.	.
=28	=28	=28	=28	=28	=28	=28	=28
2FM	F:maj	8.f	Love	.	93.577	.	voice
.	.	16e	is	.	.	.	.
.	.	8c	still	.	.	.	.
.	.	16r	.	.	.	.	.
.	.	16A	the	.	.	.	.
2GMm	G:7	8G	on-	.	95.323	.	voice
.	.	16G	-ly	.	.	.	.
.	.	8c	dream	.	.	.	.
.	.	8.B	I	.	.	.	.
=29	=29	=29	=29	=29	=29	=29	=29
*>Letter>A	*>Letter>A	*>Letter>A	*>Letter>A	*>Letter>A	*>Letter>A	*>Letter>A	*>Letter>A
*>Label>Interlude	*>Label>Interlude	*>Label>Interlude	*>Label>Interlude	*>Label>Interlude	*>Label>Interlude	*>Label>Interlude	*>Label>Interlude
1CM	C:maj	[1c	know	F	97.07	->newline	saxophone
=30	=30	=30	=30	=30	=30	=30	=30
1FM	F:maj	2.c]	_	.	100.216	.	saxophone
.	.	4r	.	.	.	.	.
=31	=31	=31	=31	=31	=31	=31	=31
1CM	C:maj	1r	.	.	103.361	.	saxophone
=32	=32	=32	=32	=32	=32	=32	=32
1GM;	G:maj	2r	.	.	106.507	.	saxophone
.	.	4.r	.	.	.	.	.
.	.	32D	So	.	.	.	.
.	.	32D	I	.	.	.	.
.	.	[16E	don't	.	.	.	.
=33	=33	=33	=33	=33	=33	=33	=33
*>Letter>B	*>Letter>B	*>Letter>B	*>Letter>B	*>Letter>B	*>Letter>B	*>Letter>B	*>Letter>B
*>Label>Verse	*>Label>Verse	*>Label>Verse	*>Label>Verse	*>Label>Verse	*>Label>Verse	*>Label>Verse	*>Label>Verse
1CM	C:maj	16E]	_	.	112.798	newline	voice
.	.	8.G	know	.	.	.	.
.	.	8c	how	.	.	.	.
.	.	16B	to	.	.	.	.
.	.	[16d	tell	.	.	.	.
.	.	16d]	_	.	.	.	.
.	.	8c	you	.	.	.	.
.	.	4r	.	.	.	.	.
.	.	16G	It's	.	.	.	.
=34	=34	=34	=34	=34	=34	=34	=34
1FM	F:maj	16G	dif-	.	116.448	.	voice
.	.	16F	-fi-	.	.	.	.
.	.	4F	-cult	.	.	.	.
.	.	16E	to	.	.	.	.
.	.	[16F	say	G	.	.	.
.	.	4F]	_	.	.	.	.
.	.	8r	.	.	.	.	.
.	.	16r	.	.	.	.	.
.	.	16E	I	.	.	.	.
=35	=35	=35	=35	=35	=35	=35	=35
1GMm	G:7	16D	ne-	.	120.098	.	voice
.	.	8.F	-ver	.	.	.	.
.	.	16G	in	.	.	.	.
.	.	8G	my	.	.	.	.
.	.	8e	wild-	.	.	.	.
.	.	16d	-est	.	.	.	.
.	.	[4d	dreams	.	.	.	.
.	.	16d]	_	.	.	.	.
.	.	16e	i-	.	.	.	.
=36	=36	=36	=36	=36	=36	=36	=36
1CM	C:maj	16d	-mag-	.	123.748	.	voice
.	.	8.c	-ined	.	.	.	.
.	.	16c	it	.	.	.	.
.	.	16B	this	.	.	.	.
.	.	[8c	way	G	.	.	.
.	.	8c]	_	.	.	.	.
.	.	4r	.	.	.	.	.
.	.	16G	some-	.	.	.	.
.	.	[16E	-times	.	.	.	.
=37	=37	=37	=37	=37	=37	=37	=37
1CM	C:maj	8E]	_	.	127.398	newline	voice
.	.	8r	.	.	.	.	.
.	.	32r	.	.	.	.	.
.	.	32G	I	.	.	.	.
.	.	16c	just	.	.	.	.
.	.	16B	don't	.	.	.	.
.	.	8d	know	.	.	.	.
.	.	8.c	you	.	.	.	.
.	.	8r	.	.	.	.	.
.	.	16G	there's	.	.	.	.
.	.	16G	a	.	.	.	.
=38	=38	=38	=38	=38	=38	=38	=38
1FM	F:maj	8G	strang-	.	131.011	.	voice
.	.	8F	-er	.	.	.	.
.	.	16F	in	.	.	.	.
.	.	8F	our	.	.	.	.
.	.	[16F	home	H	.	.	.
.	.	4F]	_	.	.	.	.
.	.	8r	.	.	.	.	.
.	.	16F	when	.	.	.	.
.	.	16E	I'm	.	.	.	.
=39	=39	=39	=39	=39	=39	=39	=39
1GMm	G:7	16D	ly-	.	134.625	.	voice
.	.	8.F	-ing	.	.	.	.
.	.	8G	right	.	.	.	.
.	.	16G	be-	.	.	.	.
.	.	8e	-side	.	.	.	.
.	.	[8.d	you	.	.	.	.
.	.	8d]	_	.	.	.	.
.	.	8e	is	.	.	.	.
=40	=40	=40	=40	=40	=40	=40	=40
1CM	C:maj	16d	when	.	138.238	.	voice
.	.	8.c	I'm	.	.	.	.
.	.	8c	most	.	.	.	.
.	.	16B	a-	.	.	.	.
.	.	[16c	-lone	H	.	.	.
.	.	4c]	_	.	.	.	.
.	.	8r	.	.	.	.	.
.	.	16E	and	.	.	.	.
.	.	16D	I	.	.	.	.
=41	=41	=41	=41	=41	=41	=41	=41
1CM	C:maj	8.C	think	.	141.852	newline	voice
.	.	16E	my	.	.	.	.
.	.	16G	heart	.	.	.	.
.	.	8c	is	.	.	.	.
.	.	8d	bro-	.	.	.	.
.	.	[4e	-ken	.	.	.	.
.	.	16e]	_	.	.	.	.
.	.	16c	there's	.	.	.	.
.	.	16c	a	.	.	.	.
=42	=42	=42	=42	=42	=42	=42	=42
1FM	F:maj	16c	emp-	.	145.447	.	voice
.	.	16A	-ti-	.	.	.	.
.	.	4A	-ness	.	.	.	.
.	.	16A	in-	.	.	.	.
.	.	[16A	-side	I	.	.	.
.	.	8A]	_	.	.	.	.
.	.	8r	.	.	.	.	.
.	.	8.r	.	.	.	.	.
.	.	16F	So	.	.	.	.
=43	=43	=43	=43	=43	=43	=43	=43
1GMm	G:7	16D	ma-	.	149.042	.	voice
.	.	16F	-ny	.	.	.	.
.	.	[8G	things	.	.	.	.
.	.	16G]	_	.	.	.	.
.	.	8G	I've	.	.	.	.
.	.	8e	longed	.	.	.	.
.	.	4d	for	.	.	.	.
.	.	16.d	have	.	.	.	.
.	.	16.e	so	.	.	.	.
=44	=44	=44	=44	=44	=44	=44	=44
1CM	C:maj	16d	of-	.	152.636	.	voice
.	.	8.c	-ten	.	.	.	.
.	.	16c	been	.	.	.	.
.	.	16B	de-	.	.	.	.
.	.	[8c	-nied	I	.	.	.
.	.	8c]	_	.	.	.	.
.	.	8r	.	.	.	.	.
.	.	8r	.	.	.	.	.
.	.	16G	still	.	.	.	.
.	.	[16F	I	.	.	.	.
=45	=45	=45	=45	=45	=45	=45	=45
1CM	C:maj	16F]	_	.	156.231	newline	voice
.	.	16r	.	.	.	.	.
.	.	24C	I	.	.	.	.
.	.	24E	would'-	.	.	.	.
.	.	24G	-nt	.	.	.	.
.	.	8c	try	.	.	.	.
.	.	16B	to	.	.	.	.
.	.	8d	change	.	.	.	.
.	.	8.c	you	.	.	.	.
.	.	8.r	.	.	.	.	.
.	.	16E	there's	.	.	.	.
=46	=46	=46	=46	=46	=46	=46	=46
1FM	F:maj	16G	no	.	159.785	.	voice
.	.	8.F	one	.	.	.	.
.	.	8F	that's	.	.	.	.
.	.	16E	to	.	.	.	.
.	.	[16F	blame	J	.	.	.
.	.	4F]	_	.	.	.	.
.	.	8.r	.	.	.	.	.
.	.	16E	it's	.	.	.	.
=47	=47	=47	=47	=47	=47	=47	=47
1GMm	G:7	16D	just	.	163.339	.	voice
.	.	8F	some	.	.	.	.
.	.	8.G	things	.	.	.	.
.	.	16G	that	.	.	.	.
.	.	8e	mean	.	.	.	.
.	.	8d	so	.	.	.	.
.	.	16d	much	.	.	.	.
.	.	8r	.	.	.	.	.
.	.	16d	and	.	.	.	.
.	.	16e	we	.	.	.	.
=48	=48	=48	=48	=48	=48	=48	=48
1CM	C:maj	16d	just	.	166.892	.	voice
.	.	8.c	don't	.	.	.	.
.	.	8c	feel	.	.	.	.
.	.	16B	the	.	.	.	.
.	.	32c	same	J	.	.	.
.	.	32d	_	.	.	.	.
.	.	[2c	_	.	.	.	.
=49	=49	=49	=49	=49	=49	=49	=49
*M2/4	*M2/4	*M2/4	*	*	*M2/4	*M2/4	*M2/4
2CMm	C:7	4.c]	_	.	170.446	.	voice
.	.	8r	.	.	.	.	.
=50	=50	=50	=50	=50	=50	=50	=50
*>Letter>C2	*>Letter>C2	*>Letter>C2	*>Letter>C2	*>Letter>C2	*>Letter>C2	*>Letter>C2	*>Letter>C2
*>Label>Chorus	*>Label>Chorus	*>Label>Chorus	*>Label>Chorus	*>Label>Chorus	*>Label>Chorus	*>Label>Chorus	*>Label>Chorus
*M4/4	*M4/4	*	*	*	*M4/4	*M4/4	*M4/4
2FM	F:maj	16A	love	.	172.222	newline	voice
.	.	16B	is	.	.	.	.
.	.	4c	why	.	.	.	.
.	.	8c	I	.	.	.	.
2GMm	G:7	8B	came	.	173.977	.	voice
.	.	4B	here	.	.	.	.
.	.	16B	in	.	.	.	.
.	.	16A	the	.	.	.	.
=51	=51	=51	=51	=51	=51	=51	=51
1CM	C:maj	8G	first	.	175.732	.	voice
.	.	8D	place	.	.	.	.
.	.	4r	.	.	.	.	.
.	.	2r	.	.	.	.	.
=52	=52	=52	=52	=52	=52	=52	=52
2FM	F:maj	16A	Love	.	179.242	.	voice
.	.	16B	is	.	.	.	.
.	.	[8c	now	.	.	.	.
.	.	8.c]	_	.	.	.	.
.	.	16c	the	.	.	.	.
2GMm	G:7	8B	rea-	.	180.998	.	voice
.	.	16B	-son	.	.	.	.
.	.	8.B	I	.	.	.	.
.	.	16A	must	.	.	.	.
.	.	16G	_	.	.	.	.
=53	=53	=53	=53	=53	=53	=53	=53
1CM	C:maj	2.G	go	F	182.753	.	voice
.	.	4r	.	.	.	.	.
=54	=54	=54	=54	=54	=54	=54	=54
2FM	F:maj	16A	Love	.	186.263	newline	voice
.	.	16B	is	.	.	.	.
.	.	4c	all	.	.	.	.
.	.	8c	I	.	.	.	.
2GMm	G:7	16B	ev-	.	187.989	.	voice
.	.	16c	-er	.	.	.	.
.	.	4d	hoped	.	.	.	.
.	.	16c	to	.	.	.	.
.	.	[16c	find	.	.	.	.
=55	=55	=55	=55	=55	=55	=55	=55
1CM	C:maj	16c]	_	.	189.716	.	voice
.	.	[4..e	here	.	.	.	.
.	.	4.e]	_	.	.	.	.
.	.	8r	.	.	.	.	.
=56	=56	=56	=56	=56	=56	=56	=56
2FM	F:maj	8f	Love	.	193.169	.	voice
.	.	16e	is	.	.	.	.
.	.	8c	still	.	.	.	.
.	.	8r	.	.	.	.	.
.	.	16A	the	.	.	.	.
2GMm	G:7	8G	on-	.	194.895	.	voice
.	.	16G	-ly	.	.	.	.
.	.	8c	dream	.	.	.	.
.	.	8.B	I	.	.	.	.
=57	=57	=57	=57	=57	=57	=57	=57
1CM	C:maj	[2c	know	F	196.622	.	voice
.	.	8c]	_	.	.	.	.
.	.	8r	.	.	.	.	.
.	.	16d	True	.	.	.	.
.	.	8.e	_	.	.	.	.
=58	=58	=58	=58	=58	=58	=58	=58
1FM	F:maj	4.f	love	.	200.075	newline	voice
.	.	8e	is	.	.	.	.
.	.	8c	still	.	.	.	.
.	.	4r	.	.	.	.	.
.	.	8G	the	.	.	.	.
=59	=59	=59	=59	=59	=59	=59	=59
1GMm	G:7	8G	on-	.	203.839	.	voice
.	.	4G	-ly	.	.	.	.
.	.	4c	dream	.	.	.	.
.	.	4d	I	.	.	.	.
.	.	8c	_	.	.	.	.
=60	=60	=60	=60	=60	=60	=60	=60
*>Letter>A	*>Letter>A	*>Letter>A	*>Letter>A	*>Letter>A	*>Letter>A	*>Letter>A	*>Letter>A
*>Label>Coda	*>Label>Coda	*>Label>Coda	*>Label>Coda	*>Label>Coda	*>Label>Coda	*>Label>Coda	*>Label>Coda
1CM	C:maj	[1c	know	F	207.604	newline	saxophone
=61	=61	=61	=61	=61	=61	=61	=61
1FM	F:maj	1c_	_	.	211.401	.	saxophone
=62	=62	=62	=62	=62	=62	=62	=62
1CM	C:maj	2.c]	_	.	215.197	.	saxophone
.	.	4r	.	.	.	.	.
=63	=63	=63	=63	=63	=63	=63	=63
1CM	C:maj	1r	.	.	218.994	.	saxophone
1r;	1r	r;	.	.	225.164	.	r
1r;	1r	r;	.	.	231.21	.	r
*-	*-	*-	*-	*-	*-	*-	*-
!!!BillboardChartDate: 1982/08/21
!!!BillboardPeak: 78
!!!BillboardWeeksOnChart: 5
!!!COC: John Denver
!!!ENC: Nathaniel Condit-Schultz
!!!EST: Awating manual error checking and editing.
!!!OTL: Seasons Of The Heart
!!!RDF**chordsym: original McGill chord annotation + (implied pitch class set, with bass pitch in first position)
!!!RDF**harmony: **recip + pitch class of root + harmonic quality
!!!RDF**leadinstrument: original McGill primary instrumentation annotation
!!!RDF**phrase: newline = linebreak in original McGill transcription
!!!RDF**timestamp: McGill audio timestamp in seconds
!!!RDT: 2017/01/12/
!!!SampleActualRank: 78
!!!SampleID#: 0463
!!!SampleTargetRank: 78
!!!MBID: a1b45cc5-3440-4f62-a3f4-f7f18fc7878c
